assets/img/braze_icons/clock-refresh.svg

<svg fill="none" height="24" viewBox="0 0 24 24" width="24" xmlns="http://www.w3.org/2000/svg"><g fill="#801ed7"><path d="m19.5407 5.67501-.1087.40553c-2.879-3.62375-8.0532-4.69136-12.18189-2.30766-2.73551 1.57934-4.38779 4.31451-4.69796 7.22862-.05846.5491.33935 1.0417.88853 1.1002.54919.0584 1.04177-.3394 1.10023-.8886.24543-2.30569 1.55072-4.46197 3.7092-5.70817 3.15589-1.82204 7.08549-1.08986 9.39509 1.55512l-.3439-.09215c-.5335-.14294-1.0818.17364-1.2247.70711-.143.53346.1736 1.0818.7071 1.22474l2.732.73205c.5335.14295 1.0818-.17364 1.2248-.7071l.732-2.73205c.143-.53347-.1736-1.08181-.7071-1.22475s-1.0818.17364-1.2247.70711z"/><path d="m20.5594 11.8984c.5492.0585.947.5511.8885 1.1002-.3101 2.9141-1.9624 5.6493-4.6979 7.2286-4.1288 2.3838-9.30312 1.3161-12.18208-2.3078l-.10858.4052c-.14294.5335-.69128.85-1.22475.7071-.53346-.1429-.85005-.6913-.7071-1.2247l.73205-2.7321c.14294-.5335.69128-.85 1.22474-.7071l2.73205.7321c.53347.1429.85005.6912.70711 1.2247s-.69128.85-1.22474.7071l-.34436-.0923c2.30953 2.6455 6.23956 3.3779 9.39566 1.5558 2.1584-1.2462 3.4637-3.4025 3.7092-5.7082.0584-.5492.551-.947 1.1002-.8886z"/><path d="m13.0001 7.49993c0-.55228-.4478-1-1-1-.5523 0-1 .44772-1 1v4.49997c0 .3513.1843.6768.4855.8575l2.5 1.5c.4735.2842 1.0878.1306 1.3719-.343.2842-.4736.1306-1.0878-.343-1.372l-2.0144-1.2087z"/></g></svg>

<svg width="24" height="24" viewBox="0 0 24 24" fill="none" xmlns="http://www.w3.org/2000/svg">
<path d="M19.5407 5.67501L19.432 6.08054C16.553 2.45679 11.3788 1.38918 7.25011 3.77288C4.5146 5.35222 2.86232 8.08739 2.55215 11.0015C2.49369 11.5506 2.8915 12.0432 3.44068 12.1017C3.98987 12.1601 4.48245 11.7623 4.54091 11.2131C4.78634 8.90741 6.09163 6.75113 8.25011 5.50493C11.406 3.68289 15.3356 4.41507 17.6452 7.06005L17.3013 6.9679C16.7678 6.82496 16.2195 7.14154 16.0766 7.67501C15.9336 8.20847 16.2502 8.75681 16.7837 8.89975L19.5157 9.6318C20.0492 9.77475 20.5975 9.45816 20.7405 8.9247L21.4725 6.19265C21.6155 5.65918 21.2989 5.11084 20.7654 4.9679C20.2319 4.82496 19.6836 5.14154 19.5407 5.67501Z" fill="#801ED7"/>
<path d="M20.5594 11.8984C21.1086 11.9569 21.5064 12.4495 21.4479 12.9986C21.1378 15.9127 19.4855 18.6479 16.75 20.2272C12.6212 22.611 7.44688 21.5433 4.56792 17.9194L4.45934 18.3246C4.3164 18.8581 3.76806 19.1746 3.23459 19.0317C2.70113 18.8888 2.38454 18.3404 2.52749 17.807L3.25954 15.0749C3.40248 14.5414 3.95082 14.2249 4.48428 14.3678L7.21633 15.0999C7.7498 15.2428 8.06638 15.7911 7.92344 16.3246C7.7805 16.8581 7.23216 17.1746 6.6987 17.0317L6.35434 16.9394C8.66387 19.5849 12.5939 20.3173 15.75 18.4952C17.9084 17.249 19.2137 15.0927 19.4592 12.787C19.5176 12.2378 20.0102 11.84 20.5594 11.8984Z" fill="#801ED7"/>
<path d="M13.0001 7.49993C13.0001 6.94765 12.5523 6.49993 12.0001 6.49993C11.4478 6.49993 11.0001 6.94765 11.0001 7.49993V11.9999C11.0001 12.3512 11.1844 12.6767 11.4856 12.8574L13.9856 14.3574C14.4591 14.6416 15.0734 14.488 15.3575 14.0144C15.6417 13.5408 15.4881 12.9266 15.0145 12.6424L13.0001 11.4337V7.49993Z" fill="#801ED7"/>
</svg>
